www/assets/icons/transfer_within_a_station.svg

<svg xmlns="http://www.w3.org/2000/svg" width="24" height="24" viewBox="0 0 24 24" fill='currentColor'><path d="M16.49 15.25V13.5L14 16l2.49 2.5v-1.75H22v-1.5zm3.02 4.25H14V21h5.51v1.75l2.49-2.5-2.49-2.5zM9.5 5.25c1.1 0 2-.9 2-2s-.9-2-2-2-2 .9-2 2 .9 2 2 2m-3.75 3.4L3 22.75h2.1l1.75-8 2.15 2v6h2V15.2l-2.05-2.05.6-3c1.3 1.6 3.25 2.6 5.45 2.6v-2c-1.85 0-3.45-1-4.35-2.45L9.7 6.7c-.35-.6-1-.95-1.7-.95q-.375 0-.75.15L2 8.05v4.7h2V9.4z"/></svg>

<svg width="24" height="24" viewBox="0 0 24 24" xmlns="http://www.w3.org/2000/svg" fill='currentColor'><path d="M16.49 15.25V13.5L14 16L16.49 18.5V16.75H22V15.25H16.49ZM19.51 19.5H14V21H19.51V22.75L22 20.25L19.51 17.75V19.5ZM9.5 5.25C10.6 5.25 11.5 4.35 11.5 3.25C11.5 2.15 10.6 1.25 9.5 1.25C8.4 1.25 7.5 2.15 7.5 3.25C7.5 4.35 8.4 5.25 9.5 5.25ZM5.75 8.65L3 22.75H5.1L6.85 14.75L9 16.75V22.75H11V15.2L8.95 13.15L9.55 10.15C10.85 11.75 12.8 12.75 15 12.75V10.75C13.15 10.75 11.55 9.75 10.65 8.3L9.7 6.7C9.35 6.1 8.7 5.75 8 5.75C7.75 5.75 7.5 5.8 7.25 5.9L2 8.05V12.75H4V9.4L5.75 8.65Z"/></svg>
